X:891
T:Tulloch Goirm
R:Strathspey
S:McGlashan - Strathspey Reels
M:C
L:1/8
K:C
G>gd>e f>cA>F|G>gd>g B>gd>g|B>gd>e f>cA>F|G>gd>g B>GA>G|
G>gd>e f>cA>F|G>gd>e f>cf>a|g>efd cFAf|gdgb g2 de||
|:B>Gd>G c>Fc>A|B>Gd>G e>Gd>(g|g)>Gd>G c>Fc>A|B>Gd>G B2 AG:|
|:G>g a/g/f/e/ f>c d/c/B/A/|G>gd>g B>gd>g|G>g a/g/f/e/ f>c d/c/B/A/|
G>gd>g B>GA>G|G>g a/g/f/e/ f>c d/c/B/A/|B>g a/g/f/e/ f>cf>a|gefd cFA^f|
g>dg>b g2 de:|
|:BG B/c/d/B/ cF A/B/c/A/|BGGA B/A/B/c/ dg|BG B/c/d/B/ cF A/B/c/A/|1
BGGc B2 AG:|2 GDDC B2 A,G,||
G>gd>e f>c f2|e>gd>g B>gd>g|B>gd>e f>c f2|e>gd>g B2 AG|Ggdg fc f2|
G>gd>e f>cf>a|gefd cFAf|gded B/d/d e2||
|:B,>GD>G, C>B,A,>C|B,>GD>G, E>G,D>G|G>G,D>G, C>B,A,>C|
B,>GD>G, D2 C>B,:|

